dist/assets/images/Yokogawa_logo 2.svg

<svg width="342" height="52" viewBox="0 0 342 52" fill="none" xmlns="http://www.w3.org/2000/svg">
<path d="M316.381 51.0442C322.035 40.0183 330.257 31.5658 341.044 25.6002C341.044 25.6291 316.401 0.985083 316.401 0.957031C304.067 13.3143 296.781 20.5119 291.743 25.6002C291.737 25.6002 291.791 25.6291 291.743 25.6002C302.173 31.2802 310.277 39.5235 316.381 51.0442Z" fill="#FFEE01"/>
<path d="M21.7867 44.0578H16.2015V29.0225L0.957031 7.42969H8.02532L18.9558 23.6255L29.9628 7.44756H36.9571L21.7867 28.8974V44.0578Z" fill="#231F20"/>
<path d="M49.9372 6.33301C47.1701 6.33301 31.9844 7.5573 31.9844 26.0231C31.9844 43.4227 47.1905 45.0065 50.1056 45.0295C53.1688 45.0512 68.1937 43.2671 68.1937 25.5588C68.1937 8.76874 54.6724 6.33301 49.9372 6.33301ZM50.3099 40.1963C44.8855 40.1963 37.6487 37.0388 37.6487 25.6329C37.6487 15.2165 44.5383 11.077 49.9627 11.077C54.9225 11.077 62.5014 14.3136 62.5014 26.1098C62.5014 37.6968 54.1389 40.1963 50.3099 40.1963Z" fill="#231F20"/>
<path d="M76.5284 44.0404H70.9688V7.40723L76.873 7.42179V24.7551L94.152 7.42686H101.741L86.494 22.7096L102.943 44.0243L95.7933 44.0532L82.2132 26.1077L76.5284 31.4817V44.0404Z" fill="#231F20"/>
<path d="M116.187 6.23926C110.893 6.42073 97.7266 9.12126 97.7266 25.34C97.7266 43.1885 111.975 44.9918 116.356 44.9688C121.257 44.9399 134.076 41.5231 134.14 25.4752C134.214 6.24688 115.973 6.24179 116.187 6.23926ZM116.157 40.1535C110.853 40.1535 103.56 37.3173 103.56 25.6155C103.56 14.4416 110.883 11.0623 116.032 11.0623C122.495 11.0623 128.267 15.8419 128.267 25.3757C128.267 37.6922 120.44 40.1535 116.157 40.1535Z" fill="#231F20"/>
<path d="M154.798 24.7682L170.689 24.7826L170.637 43.8606H166.234L165.596 40.3281C162.157 43.6821 158.722 44.8476 153.172 44.8323C145.162 44.8179 136.406 38.4637 136.406 25.428C136.406 16.5675 142.035 6.43938 153.8 6.49043C160.034 6.49043 168.713 8.56654 170.183 18.2024L164.424 18.224C163.697 15.7984 161.629 11.0545 154.28 11.0545C148.266 11.0545 142.318 14.7144 142.318 25.8602C142.318 36.4067 148.93 40.3115 153.991 40.3115C158.941 40.3115 163.618 38.6282 165.506 29.8187H154.824L154.798 24.7661" fill="#231F20"/>
<path d="M190.609 7.48145L183.086 7.4959L171.359 44.0244H177.368L180.483 33.8861L194.811 33.8717L198.846 43.9386L204.998 43.8806L190.609 7.48145ZM181.894 29.1609L186.885 12.7406L187.957 15.6838L192.952 29.1609H181.894Z" fill="#231F20"/>
<path d="M198.242 7.42969H204.504C209.425 27.311 210.398 30.8027 211.483 34.6871C212.346 31.0271 214.132 26.2321 218.952 7.42969H224.621C230.339 27.6986 231.192 30.8256 232.438 34.9064C233.305 31.5118 234.497 27.4691 239.383 7.42969H245.311L235.501 43.9531L229.632 44.0255C224.877 27.8118 224.292 25.8504 221.885 17.3112C219.904 24.116 219.516 25.8785 214.426 43.9923H208.394L198.242 7.43057" fill="#231F20"/>
<path d="M259.616 7.37402H252.397L239.445 43.9689H245.232L248.563 34.1826L263.136 34.197L266.687 43.9503L272.74 43.9358L259.616 7.37402ZM250.299 29.3366L255.938 13.1229L255.933 13.0492L261.615 29.3495L250.299 29.3366Z" fill="#231F20"/>
</svg>

<svg width="342" height="52" fill="none" xmlns="http://www.w3.org/2000/svg"><path d="M316.381 51.044c5.654-11.026 13.876-19.478 24.663-25.444 0 .03-24.643-24.615-24.643-24.643-12.334 12.357-19.62 19.555-24.658 24.643-.006 0 .048.03 0 0 10.43 5.68 18.534 13.923 24.638 25.444z" fill="#FFEE01"/><path d="M21.787 44.058h-5.585V29.023L.957 7.43h7.068l10.93 16.195L29.964 7.448h6.994l-15.17 21.45v15.16z" fill="#231F20"/><path d="M49.937 6.333c-2.767 0-17.953 1.224-17.953 19.69 0 17.4 15.206 18.984 18.122 19.006 3.063.022 18.088-1.762 18.088-19.47 0-16.79-13.522-19.226-18.257-19.226zm.373 33.863c-5.425 0-12.661-3.157-12.661-14.563 0-10.416 6.89-14.556 12.314-14.556 4.96 0 12.538 3.237 12.538 15.033 0 11.587-8.362 14.086-12.191 14.086zm26.218 3.844h-5.56V7.407l5.905.015v17.333L94.152 7.427h7.589L86.494 22.71l16.449 21.314-7.15.03-13.58-17.946-5.685 5.374V44.04z" fill="#231F20"/><path d="M116.187 6.24c-5.294.18-18.46 2.881-18.46 19.1 0 17.848 14.248 19.652 18.629 19.629 4.901-.03 17.72-3.446 17.784-19.494.074-19.228-18.167-19.233-17.953-19.236zm-.03 33.913c-5.304 0-12.597-2.836-12.597-14.537 0-11.174 7.323-14.554 12.472-14.554 6.463 0 12.235 4.78 12.235 14.314 0 12.316-7.827 14.777-12.11 14.777zm38.641-15.385l15.891.015-.052 19.078h-4.403l-.638-3.533c-3.439 3.354-6.874 4.52-12.424 4.504-8.01-.014-16.766-6.368-16.766-19.404 0-8.86 5.629-18.989 17.394-18.938 6.234 0 14.913 2.077 16.383 11.712l-5.759.022c-.727-2.426-2.795-7.17-10.144-7.17-6.014 0-11.962 3.66-11.962 14.806 0 10.547 6.612 14.452 11.673 14.452 4.95 0 9.627-1.684 11.515-10.493h-10.682l-.026-5.053m35.811-17.285l-7.523.015-11.727 36.528h6.009l3.115-10.138 14.328-.014 4.035 10.067 6.152-.058-14.389-36.4zm-8.715 21.68l4.991-16.42 1.072 2.943 4.995 13.477h-11.058zM198.242 7.43h6.262c4.921 19.881 5.894 23.373 6.979 27.257.863-3.66 2.649-8.455 7.469-27.257h5.669c5.718 20.269 6.571 23.396 7.817 27.476.867-3.394 2.059-7.437 6.945-27.476h5.928l-9.81 36.523-5.869.072c-4.755-16.213-5.34-18.175-7.747-26.714-1.981 6.805-2.369 8.567-7.459 26.681h-6.032L198.242 7.431m61.374-.057h-7.219l-12.952 36.595h5.787l3.331-9.786 14.573.014 3.551 9.753 6.053-.014-13.124-36.562zm-9.317 21.963l5.639-16.214-.005-.074 5.682 16.3-11.316-.012z" fill="#231F20"/></svg>
